images/3234880.svg

<?xml version="1.0" encoding="UTF-8"?>
<svg xmlns="http://www.w3.org/2000/svg" xmlns:xlink="http://www.w3.org/1999/xlink" width="300pt" height="300pt" viewBox="0 0 300 300" version="1.1">
<defs>
<g>
<symbol overflow="visible" id="glyph0-0">
<path style="stroke:none;" d="M 0.59375 2.125 L 0.59375 -8.46875 L 6.59375 -8.46875 L 6.59375 2.125 Z M 1.265625 1.453125 L 5.9375 1.453125 L 5.9375 -7.78125 L 1.265625 -7.78125 Z M 1.265625 1.453125 "/>
</symbol>
<symbol overflow="visible" id="glyph0-1">
<path style="stroke:none;" d="M 1.171875 -8.75 L 2.765625 -8.75 L 6.65625 -1.4375 L 6.65625 -8.75 L 7.796875 -8.75 L 7.796875 0 L 6.203125 0 L 2.328125 -7.3125 L 2.328125 0 L 1.171875 0 Z M 1.171875 -8.75 "/>
</symbol>
<symbol overflow="visible" id="glyph0-2">
<path style="stroke:none;" d="M 4.734375 -7.953125 C 3.867188 -7.953125 3.179688 -7.628906 2.671875 -6.984375 C 2.171875 -6.347656 1.921875 -5.472656 1.921875 -4.359375 C 1.921875 -3.265625 2.171875 -2.394531 2.671875 -1.75 C 3.179688 -1.113281 3.867188 -0.796875 4.734375 -0.796875 C 5.585938 -0.796875 6.265625 -1.113281 6.765625 -1.75 C 7.273438 -2.394531 7.53125 -3.265625 7.53125 -4.359375 C 7.53125 -5.472656 7.273438 -6.347656 6.765625 -6.984375 C 6.265625 -7.628906 5.585938 -7.953125 4.734375 -7.953125 Z M 4.734375 -8.90625 C 5.953125 -8.90625 6.925781 -8.492188 7.65625 -7.671875 C 8.394531 -6.847656 8.765625 -5.742188 8.765625 -4.359375 C 8.765625 -2.984375 8.394531 -1.882812 7.65625 -1.0625 C 6.925781 -0.238281 5.953125 0.171875 4.734375 0.171875 C 3.503906 0.171875 2.519531 -0.238281 1.78125 -1.0625 C 1.039062 -1.882812 0.671875 -2.984375 0.671875 -4.359375 C 0.671875 -5.742188 1.039062 -6.847656 1.78125 -7.671875 C 2.519531 -8.492188 3.503906 -8.90625 4.734375 -8.90625 Z M 4.734375 -8.90625 "/>
</symbol>
</g>
</defs>
<g id="surface39285">
<rect x="0" y="0" width="300" height="300" style="fill:rgb(100%,100%,100%);fill-opacity:1;stroke:none;"/>
<path style="fill:none;stroke-width:1.2;stroke-linecap:butt;stroke-linejoin:miter;stroke:rgb(0%,0%,0%);stroke-opacity:1;stroke-miterlimit:10;" d="M 49.71875 206.882812 L 61.039062 197.5625 "/>
<path style="fill:none;stroke-width:1.2;stroke-linecap:butt;stroke-linejoin:miter;stroke:rgb(0%,0%,100%);stroke-opacity:1;stroke-miterlimit:10;" d="M 61.039062 197.5625 L 72.359375 188.242188 "/>
<path style="fill:none;stroke-width:1.2;stroke-linecap:butt;stroke-linejoin:miter;stroke:rgb(0%,0%,100%);stroke-opacity:1;stroke-miterlimit:10;" d="M 72.359375 188.242188 L 86.089844 193.386719 "/>
<path style="fill:none;stroke-width:1.2;stroke-linecap:butt;stroke-linejoin:miter;stroke:rgb(0%,0%,0%);stroke-opacity:1;stroke-miterlimit:10;" d="M 86.089844 193.386719 L 99.816406 198.527344 "/>
<path style="fill:none;stroke-width:1.2;stroke-linecap:butt;stroke-linejoin:miter;stroke:rgb(0%,0%,100%);stroke-opacity:1;stroke-miterlimit:10;" d="M 72.359375 188.242188 L 69.945312 173.78125 "/>
<path style="fill:none;stroke-width:1.2;stroke-linecap:butt;stroke-linejoin:miter;stroke:rgb(0%,0%,0%);stroke-opacity:1;stroke-miterlimit:10;" d="M 69.945312 173.78125 L 67.535156 159.320312 "/>
<path style=" stroke:none;fill-rule:nonzero;fill:rgb(100%,100%,100%);fill-opacity:1;" d="M 68.359375 181.242188 L 77.359375 181.242188 L 77.359375 195.242188 L 68.359375 195.242188 Z M 68.359375 181.242188 "/>
<g style="fill:rgb(0%,0%,100%);fill-opacity:1;">
  <use xlink:href="#glyph0-1" x="68.359375" y="192.380859"/>
</g>
<path style="fill:none;stroke-width:1.2;stroke-linecap:butt;stroke-linejoin:miter;stroke:rgb(0%,0%,0%);stroke-opacity:1;stroke-miterlimit:10;" d="M 67.535156 159.320312 L 53.804688 154.175781 "/>
<path style="fill:none;stroke-width:1.2;stroke-linecap:butt;stroke-linejoin:miter;stroke:rgb(0%,0%,100%);stroke-opacity:1;stroke-miterlimit:10;" d="M 53.804688 154.175781 L 40.074219 149.035156 "/>
<path style="fill:none;stroke-width:1.2;stroke-linecap:butt;stroke-linejoin:miter;stroke:rgb(0%,0%,0%);stroke-opacity:1;stroke-miterlimit:10;" d="M 67.207031 151.828125 L 56.222656 147.714844 "/>
<path style="fill:none;stroke-width:1.2;stroke-linecap:butt;stroke-linejoin:miter;stroke:rgb(0%,0%,100%);stroke-opacity:1;stroke-miterlimit:10;" d="M 56.222656 147.714844 L 45.238281 143.601562 "/>
<path style="fill:none;stroke-width:1.2;stroke-linecap:butt;stroke-linejoin:miter;stroke:rgb(0%,0%,0%);stroke-opacity:1;stroke-miterlimit:10;" d="M 90.171875 140.679688 L 67.535156 159.320312 "/>
<path style="fill:none;stroke-width:1.2;stroke-linecap:butt;stroke-linejoin:miter;stroke:rgb(0%,0%,100%);stroke-opacity:1;stroke-miterlimit:10;" d="M 40.074219 149.035156 L 37.660156 134.574219 "/>
<path style="fill:none;stroke-width:1.2;stroke-linecap:butt;stroke-linejoin:miter;stroke:rgb(0%,0%,0%);stroke-opacity:1;stroke-miterlimit:10;" d="M 37.660156 134.574219 L 35.25 120.109375 "/>
<path style=" stroke:none;fill-rule:nonzero;fill:rgb(100%,100%,100%);fill-opacity:1;" d="M 36.074219 142.035156 L 45.074219 142.035156 L 45.074219 156.035156 L 36.074219 156.035156 Z M 36.074219 142.035156 "/>
<g style="fill:rgb(0%,0%,100%);fill-opacity:1;">
  <use xlink:href="#glyph0-1" x="36.074219" y="153.173828"/>
</g>
<path style="fill:none;stroke-width:1.2;stroke-linecap:butt;stroke-linejoin:miter;stroke:rgb(0%,0%,0%);stroke-opacity:1;stroke-miterlimit:10;" d="M 35.25 120.109375 L 46.570312 110.789062 "/>
<path style="fill:none;stroke-width:1.2;stroke-linecap:butt;stroke-linejoin:miter;stroke:rgb(0%,0%,100%);stroke-opacity:1;stroke-miterlimit:10;" d="M 46.570312 110.789062 L 57.886719 101.472656 "/>
<path style="fill:none;stroke-width:1.2;stroke-linecap:butt;stroke-linejoin:miter;stroke:rgb(0%,0%,0%);stroke-opacity:1;stroke-miterlimit:10;" d="M 41.898438 123.574219 L 50.953125 116.117188 "/>
<path style="fill:none;stroke-width:1.2;stroke-linecap:butt;stroke-linejoin:miter;stroke:rgb(0%,0%,100%);stroke-opacity:1;stroke-miterlimit:10;" d="M 50.953125 116.117188 L 60.007812 108.660156 "/>
<path style="fill:none;stroke-width:1.2;stroke-linecap:butt;stroke-linejoin:miter;stroke:rgb(0%,0%,100%);stroke-opacity:1;stroke-miterlimit:10;" d="M 57.886719 101.472656 L 71.617188 106.613281 "/>
<path style="fill:none;stroke-width:1.2;stroke-linecap:butt;stroke-linejoin:miter;stroke:rgb(0%,0%,0%);stroke-opacity:1;stroke-miterlimit:10;" d="M 71.617188 106.613281 L 85.347656 111.757812 "/>
<path style=" stroke:none;fill-rule:nonzero;fill:rgb(100%,100%,100%);fill-opacity:1;" d="M 53.886719 94.472656 L 62.886719 94.472656 L 62.886719 108.472656 L 53.886719 108.472656 Z M 53.886719 94.472656 "/>
<g style="fill:rgb(0%,0%,100%);fill-opacity:1;">
  <use xlink:href="#glyph0-1" x="53.886719" y="105.611328"/>
</g>
<path style="fill:none;stroke-width:1.2;stroke-linecap:butt;stroke-linejoin:miter;stroke:rgb(0%,0%,0%);stroke-opacity:1;stroke-miterlimit:10;" d="M 85.347656 111.757812 L 90.171875 140.679688 "/>
<path style="fill:none;stroke-width:1.2;stroke-linecap:butt;stroke-linejoin:miter;stroke:rgb(0%,0%,0%);stroke-opacity:1;stroke-miterlimit:10;" d="M 92.636719 113.515625 L 96.496094 136.652344 "/>
<path style="fill:none;stroke-width:1.2;stroke-linecap:butt;stroke-linejoin:miter;stroke:rgb(0%,0%,0%);stroke-opacity:1;stroke-miterlimit:10;" d="M 107.984375 93.117188 L 85.347656 111.757812 "/>
<path style="fill:none;stroke-width:1.2;stroke-linecap:butt;stroke-linejoin:miter;stroke:rgb(0%,0%,0%);stroke-opacity:1;stroke-miterlimit:10;" d="M 90.171875 140.679688 L 117.632812 150.964844 "/>
<path style="fill:none;stroke-width:1.2;stroke-linecap:butt;stroke-linejoin:miter;stroke:rgb(0%,0%,0%);stroke-opacity:1;stroke-miterlimit:10;" d="M 117.632812 150.964844 L 140.269531 132.324219 "/>
<path style="fill:none;stroke-width:1.2;stroke-linecap:butt;stroke-linejoin:miter;stroke:rgb(0%,0%,0%);stroke-opacity:1;stroke-miterlimit:10;" d="M 115.511719 143.773438 L 133.621094 128.863281 "/>
<path style="fill:none;stroke-width:1.2;stroke-linecap:butt;stroke-linejoin:miter;stroke:rgb(0%,0%,0%);stroke-opacity:1;stroke-miterlimit:10;" d="M 140.269531 132.324219 L 135.445312 103.402344 "/>
<path style="fill:none;stroke-width:1.2;stroke-linecap:butt;stroke-linejoin:miter;stroke:rgb(0%,0%,0%);stroke-opacity:1;stroke-miterlimit:10;" d="M 140.269531 132.324219 L 167.730469 142.609375 "/>
<path style="fill:none;stroke-width:1.2;stroke-linecap:butt;stroke-linejoin:miter;stroke:rgb(0%,0%,0%);stroke-opacity:1;stroke-miterlimit:10;" d="M 135.445312 103.402344 L 107.984375 93.117188 "/>
<path style="fill:none;stroke-width:1.2;stroke-linecap:butt;stroke-linejoin:miter;stroke:rgb(0%,0%,0%);stroke-opacity:1;stroke-miterlimit:10;" d="M 130.28125 108.835938 L 108.3125 100.605469 "/>
<path style="fill:none;stroke-width:1.2;stroke-linecap:butt;stroke-linejoin:miter;stroke:rgb(0%,0%,0%);stroke-opacity:1;stroke-miterlimit:10;" d="M 167.730469 142.609375 L 190.367188 123.972656 "/>
<path style="fill:none;stroke-width:1.2;stroke-linecap:butt;stroke-linejoin:miter;stroke:rgb(0%,0%,0%);stroke-opacity:1;stroke-miterlimit:10;" d="M 174.378906 146.074219 L 192.488281 131.160156 "/>
<path style="fill:none;stroke-width:1.2;stroke-linecap:butt;stroke-linejoin:miter;stroke:rgb(0%,0%,0%);stroke-opacity:1;stroke-miterlimit:10;" d="M 172.554688 171.535156 L 167.730469 142.609375 "/>
<path style="fill:none;stroke-width:1.2;stroke-linecap:butt;stroke-linejoin:miter;stroke:rgb(0%,0%,0%);stroke-opacity:1;stroke-miterlimit:10;" d="M 190.367188 123.972656 L 217.828125 134.257812 "/>
<path style="fill:none;stroke-width:1.2;stroke-linecap:butt;stroke-linejoin:miter;stroke:rgb(0%,0%,0%);stroke-opacity:1;stroke-miterlimit:10;" d="M 217.828125 134.257812 L 222.652344 163.179688 "/>
<path style="fill:none;stroke-width:1.2;stroke-linecap:butt;stroke-linejoin:miter;stroke:rgb(0%,0%,0%);stroke-opacity:1;stroke-miterlimit:10;" d="M 225.117188 136.015625 L 228.976562 159.152344 "/>
<path style="fill:none;stroke-width:1.2;stroke-linecap:butt;stroke-linejoin:miter;stroke:rgb(100%,0%,0%);stroke-opacity:1;stroke-miterlimit:10;" d="M 243.847656 120.730469 L 230.835938 127.492188 "/>
<path style="fill:none;stroke-width:1.2;stroke-linecap:butt;stroke-linejoin:miter;stroke:rgb(0%,0%,0%);stroke-opacity:1;stroke-miterlimit:10;" d="M 230.835938 127.492188 L 217.828125 134.257812 "/>
<path style="fill:none;stroke-width:1.2;stroke-linecap:butt;stroke-linejoin:miter;stroke:rgb(0%,0%,0%);stroke-opacity:1;stroke-miterlimit:10;" d="M 222.652344 163.179688 L 200.015625 181.820312 "/>
<path style="fill:none;stroke-width:1.2;stroke-linecap:butt;stroke-linejoin:miter;stroke:rgb(0%,0%,0%);stroke-opacity:1;stroke-miterlimit:10;" d="M 222.652344 163.179688 L 237.152344 165.355469 "/>
<path style="fill:none;stroke-width:1.2;stroke-linecap:butt;stroke-linejoin:miter;stroke:rgb(100%,0%,0%);stroke-opacity:1;stroke-miterlimit:10;" d="M 237.152344 165.355469 L 251.652344 167.53125 "/>
<path style="fill:none;stroke-width:1.2;stroke-linecap:butt;stroke-linejoin:miter;stroke:rgb(0%,0%,0%);stroke-opacity:1;stroke-miterlimit:10;" d="M 200.015625 181.820312 L 172.554688 171.535156 "/>
<path style="fill:none;stroke-width:1.2;stroke-linecap:butt;stroke-linejoin:miter;stroke:rgb(0%,0%,0%);stroke-opacity:1;stroke-miterlimit:10;" d="M 199.6875 174.332031 L 177.71875 166.101562 "/>
<path style="fill:none;stroke-width:1.2;stroke-linecap:butt;stroke-linejoin:miter;stroke:rgb(100%,0%,0%);stroke-opacity:1;stroke-miterlimit:10;" d="M 251.652344 167.53125 L 258.199219 154.414062 "/>
<path style="fill:none;stroke-width:1.2;stroke-linecap:butt;stroke-linejoin:miter;stroke:rgb(0%,0%,0%);stroke-opacity:1;stroke-miterlimit:10;" d="M 258.199219 154.414062 L 264.75 141.296875 "/>
<path style=" stroke:none;fill-rule:nonzero;fill:rgb(100%,100%,100%);fill-opacity:1;" d="M 246.652344 160.53125 L 256.652344 160.53125 L 256.652344 174.53125 L 246.652344 174.53125 Z M 246.652344 160.53125 "/>
<g style="fill:rgb(100%,0%,0%);fill-opacity:1;">
  <use xlink:href="#glyph0-2" x="246.652344" y="171.669922"/>
</g>
<path style="fill:none;stroke-width:1.2;stroke-linecap:butt;stroke-linejoin:miter;stroke:rgb(0%,0%,0%);stroke-opacity:1;stroke-miterlimit:10;" d="M 264.75 141.296875 L 254.296875 131.011719 "/>
<path style="fill:none;stroke-width:1.2;stroke-linecap:butt;stroke-linejoin:miter;stroke:rgb(100%,0%,0%);stroke-opacity:1;stroke-miterlimit:10;" d="M 254.296875 131.011719 L 243.847656 120.730469 "/>
<path style=" stroke:none;fill-rule:nonzero;fill:rgb(100%,100%,100%);fill-opacity:1;" d="M 238.847656 113.730469 L 248.847656 113.730469 L 248.847656 127.730469 L 238.847656 127.730469 Z M 238.847656 113.730469 "/>
<g style="fill:rgb(100%,0%,0%);fill-opacity:1;">
  <use xlink:href="#glyph0-2" x="238.847656" y="124.869141"/>
</g>
</g>
</svg>

<svg xmlns="http://www.w3.org/2000/svg" xmlns:xlink="http://www.w3.org/1999/xlink" width="300pt" height="300pt" viewBox="0 0 300 300"><defs><symbol overflow="visible"><path d="M.594 2.125V-8.47h6V2.126zm.672-.672h4.671V-7.78h-4.67zm0 0"/></symbol><symbol overflow="visible" id="a"><path d="M1.172-8.75h1.594l3.89 7.313V-8.75h1.14V0H6.204L2.328-7.313V0H1.172zm0 0"/></symbol><symbol overflow="visible" id="b"><path d="M4.734-7.953c-.867 0-1.554.324-2.062.97-.5.635-.75 1.51-.75 2.624 0 1.094.25 1.965.75 2.61.508.637 1.195.953 2.062.953.852 0 1.532-.316 2.032-.953.507-.645.765-1.516.765-2.61 0-1.113-.257-1.988-.764-2.624-.5-.645-1.18-.97-2.032-.97zm0-.953c1.22 0 2.192.414 2.922 1.234.74.824 1.11 1.93 1.11 3.313 0 1.376-.37 2.477-1.11 3.298C6.926-.24 5.953.17 4.734.17c-1.23 0-2.214-.41-2.953-1.234C1.04-1.882.673-2.984.673-4.36c0-1.382.367-2.488 1.11-3.312.738-.82 1.722-1.234 2.952-1.234zm0 0"/></symbol></defs><g><path fill="#fff" d="M0 0h300v300H0z"/><path d="M49.72 206.883l11.32-9.32" stroke-width="1.2" stroke="#000" stroke-miterlimit="10" fill="none"/><path d="M61.04 197.563l11.32-9.32M72.36 188.242l13.73 5.145" stroke-width="1.2" stroke="#00f" stroke-miterlimit="10" fill="none"/><path d="M86.09 193.387l13.726 5.14" stroke-width="1.2" stroke="#000" stroke-miterlimit="10" fill="none"/><path d="M72.36 188.242l-2.415-14.46" stroke-width="1.2" stroke="#00f" stroke-miterlimit="10" fill="none"/><path d="M69.945 173.78l-2.41-14.46" stroke-width="1.2" stroke="#000" stroke-miterlimit="10" fill="none"/><path d="M68.36 181.242h9v14h-9zm0 0" fill="#fff"/><use xlink:href="#a" x="68.359" y="192.381" fill="#00f"/><path d="M67.535 159.32l-13.73-5.144" stroke-width="1.2" stroke="#000" stroke-miterlimit="10" fill="none"/><path d="M53.805 154.176l-13.73-5.14" stroke-width="1.2" stroke="#00f" stroke-miterlimit="10" fill="none"/><path d="M67.207 151.828l-10.984-4.113" stroke-width="1.2" stroke="#000" stroke-miterlimit="10" fill="none"/><path d="M56.223 147.715l-10.985-4.113" stroke-width="1.2" stroke="#00f" stroke-miterlimit="10" fill="none"/><path d="M90.172 140.68l-22.637 18.64" stroke-width="1.2" stroke="#000" stroke-miterlimit="10" fill="none"/><path d="M40.074 149.035l-2.414-14.46" stroke-width="1.2" stroke="#00f" stroke-miterlimit="10" fill="none"/><path d="M37.66 134.574l-2.41-14.465" stroke-width="1.2" stroke="#000" stroke-miterlimit="10" fill="none"/><path d="M36.074 142.035h9v14h-9zm0 0" fill="#fff"/><use xlink:href="#a" x="36.074" y="153.174" fill="#00f"/><path d="M35.25 120.11l11.32-9.32" stroke-width="1.2" stroke="#000" stroke-miterlimit="10" fill="none"/><path d="M46.57 110.79l11.317-9.317" stroke-width="1.2" stroke="#00f" stroke-miterlimit="10" fill="none"/><path d="M41.898 123.574l9.055-7.457" stroke-width="1.2" stroke="#000" stroke-miterlimit="10" fill="none"/><path d="M50.953 116.117l9.055-7.457M57.887 101.473l13.73 5.14" stroke-width="1.2" stroke="#00f" stroke-miterlimit="10" fill="none"/><path d="M71.617 106.613l13.73 5.145" stroke-width="1.2" stroke="#000" stroke-miterlimit="10" fill="none"/><path d="M53.887 94.473h9v14h-9zm0 0" fill="#fff"/><use xlink:href="#a" x="53.887" y="105.611" fill="#00f"/><path d="M85.348 111.758l4.824 28.922M92.637 113.516l3.86 23.136M107.984 93.117l-22.636 18.64M90.172 140.68l27.46 10.285M117.633 150.965l22.637-18.64M115.512 143.773l18.11-14.91M140.27 132.324l-4.825-28.922M140.27 132.324l27.46 10.285M135.445 103.402l-27.46-10.285M130.28 108.836l-21.968-8.23M167.73 142.61l22.637-18.637M174.38 146.074l18.108-14.914M172.555 171.535l-4.825-28.926M190.367 123.973l27.46 10.285M217.828 134.258l4.824 28.922M225.117 136.016l3.86 23.136" stroke-width="1.2" stroke="#000" stroke-miterlimit="10" fill="none"/><path d="M243.848 120.73l-13.012 6.762" stroke-width="1.2" stroke="#f00" stroke-miterlimit="10" fill="none"/><path d="M230.836 127.492l-13.008 6.766M222.652 163.18l-22.636 18.64M222.652 163.18l14.5 2.175" stroke-width="1.2" stroke="#000" stroke-miterlimit="10" fill="none"/><path d="M237.152 165.355l14.5 2.176" stroke-width="1.2" stroke="#f00" stroke-miterlimit="10" fill="none"/><path d="M200.016 181.82l-27.46-10.285M199.688 174.332l-21.97-8.23" stroke-width="1.2" stroke="#000" stroke-miterlimit="10" fill="none"/><path d="M251.652 167.53l6.547-13.116" stroke-width="1.2" stroke="#f00" stroke-miterlimit="10" fill="none"/><path d="M258.2 154.414l6.55-13.117" stroke-width="1.2" stroke="#000" stroke-miterlimit="10" fill="none"/><path d="M246.652 160.53h10v14h-10zm0 0" fill="#fff"/><use xlink:href="#b" x="246.652" y="171.67" fill="#f00"/><path d="M264.75 141.297l-10.453-10.285" stroke-width="1.2" stroke="#000" stroke-miterlimit="10" fill="none"/><path d="M254.297 131.012l-10.45-10.282" stroke-width="1.2" stroke="#f00" stroke-miterlimit="10" fill="none"/><path d="M238.848 113.73h10v14h-10zm0 0" fill="#fff"/><use xlink:href="#b" x="238.848" y="124.869" fill="#f00"/></g></svg>
